Otagle3/Assets/ikonySvG/PrawaAutorskie.svg

<svg id="SVGRoot" width="206px" height="206px" version="1.1" viewBox="0 0 206 206" xmlns="http://www.w3.org/2000/svg">
 <g transform="matrix(3.7795 0 0 3.7795 -1795.2 2502.6)">
  <flowRoot fill="black" font-family="sans-serif" font-size="40px" letter-spacing="0px" word-spacing="0px" style="line-height:1.25" xml:space="preserve"><flowRegion><rect x="-392.69" y="-63.57" width="758.02" height="397.52"/></flowRegion><flowPara/></flowRoot>
  <flowRoot fill="black" font-family="sans-serif" font-size="40px" letter-spacing="0px" word-spacing="0px" style="line-height:1.25" xml:space="preserve"><flowRegion><rect x="-251.87" y="-84.492" width="624.44" height="455.45"/></flowRegion><flowPara/></flowRoot>
  <flowRoot fill="black" font-family="sans-serif" font-size="40px" letter-spacing="0px" word-spacing="0px" style="line-height:1.25" xml:space="preserve"><flowRegion><rect x="-202.78" y="-50.695" width="473.96" height="281.64"/></flowRegion><flowPara/></flowRoot>
  <flowRoot fill="black" font-family="sans-serif" font-size="40px" letter-spacing="0px" word-spacing="0px" style="line-height:1.25" xml:space="preserve"><flowRegion><rect x="-86.906" y="-78.859" width="516.61" height="410.39"/></flowRegion><flowPara/></flowRoot>
  <flowRoot fill="black" font-family="sans-serif" font-size="40px" letter-spacing="0px" word-spacing="0px" style="line-height:1.25" xml:space="preserve"><flowRegion><rect x="-81.273" y="-32.188" width="309" height="322.68"/></flowRegion><flowPara/></flowRoot>
  <flowRoot fill="black" font-family="sans-serif" font-size="40px" letter-spacing="0px" word-spacing="0px" style="line-height:1.25" xml:space="preserve"><flowRegion><rect x="-90.93" y="-68.398" width="392.69" height="252.67"/></flowRegion><flowPara/></flowRoot>
  <g transform="translate(675.17 -.21291)">
   <flowRoot fill="black" font-family="sans-serif" font-size="40px" letter-spacing="0px" word-spacing="0px" style="line-height:1.25" xml:space="preserve"><flowRegion><rect x="-100.59" y="-53.109" width="462.7" height="369.35"/></flowRegion><flowPara/></flowRoot>
   <g transform="translate(57.194 .21291)">
    <flowRoot fill="black" font-family="sans-serif" font-size="40px" letter-spacing="0px" word-spacing="0px" style="line-height:1.25" xml:space="preserve"><flowRegion><rect x="-329.12" y="-12.07" width="696.05" height="259.91"/></flowRegion><flowPara/></flowRoot>
    <g transform="translate(-1495.1 -629.38)">
     <flowRoot fill="black" font-family="sans-serif" font-size="40px" letter-spacing="0px" word-spacing="0px" style="line-height:1.25" xml:space="preserve"><flowRegion><rect x="-306.59" y="-111.05" width="206" height="51.5"/></flowRegion><flowPara/></flowRoot>
     <g transform="translate(174.63 .21291)">
      <rect x="1064.1" y="-31.75" width="52.917" height="52.917" fill="#db3b3b" stroke="#000" stroke-linecap="round" stroke-width=".5" style="paint-order:fill markers stroke"/>
      <text x="1090.3129" y="17.226522" fill="#ffffff" font-family="sans-serif" font-size="6.35px" letter-spacing="0px" stroke-width=".26458" word-spacing="0px" style="line-height:1.25" xml:space="preserve"><tspan x="1090.3129" y="17.226522" fill="#ffffff" font-family="sans-serif" font-size="4.9389px" stroke-width=".26458" text-align="center" text-anchor="middle">Prawa autorskie</tspan></text>
      <g transform="matrix(1.4458 0 0 1.4458 1076.1 -26.836)" fill="#fff">
       <g fill="#fff">
        <path d="m9.9 6c1 0 2 .4 2.7 1.2l1.4-1.4c-1.1-1.2-2.6-1.8-4.1-1.8-1.6 0-3 .6-4.2 1.8-2.3 2.3-2.3 6.1 0 8.5 1.1 1.1 2.6 1.7 4.2 1.7s3-.6 4.2-1.8l-1.4-1.4c-1.5 1.5-4 1.5-5.4 0-1.5-1.6-1.5-4.1 0-5.7.6-.7 1.5-1.1 2.6-1.1z"/>
        <path d="m10 0c-5.5 0-10 4.5-10 10s4.5 10 10 10 10-4.5 10-10-4.5-10-10-10zm0 18c-4.4 0-8-3.6-8-8s3.6-8 8-8 8 3.6 8 8-3.6 8-8 8z"/>
       </g>
      </g>
     </g>
    </g>
   </g>
  </g>
 </g>
</svg>

<?xml version="1.0" encoding="UTF-8" standalone="no"?>
<svg
   xmlns:osb="http://www.openswatchbook.org/uri/2009/osb"
   xmlns:dc="http://purl.org/dc/elements/1.1/"
   xmlns:cc="http://creativecommons.org/ns#"
   xmlns:rdf="http://www.w3.org/1999/02/22-rdf-syntax-ns#"
   xmlns:svg="http://www.w3.org/2000/svg"
   xmlns="http://www.w3.org/2000/svg"
   id="svg47"
   version="1.1"
   viewBox="0 0 52.758294 52.758296"
   height="199.40143"
   width="199.40143">
  <defs
     id="defs42">
    <pattern
       id="EMFhbasepattern"
       patternUnits="userSpaceOnUse"
       width="6"
       height="6"
       x="0"
       y="0" />
    <marker
       style="overflow:visible"
       id="Arrow1Mend-5-0"
       refX="0"
       refY="0"
       orient="auto">
      <path
         transform="matrix(-0.4,0,0,-0.4,-4,0)"
         style="fill:#000000;fill-opacity:1;fill-rule:evenodd;stroke:#000000;stroke-width:1.00000003pt;stroke-opacity:1"
         d="M 0,0 5,-5 -12.5,0 5,5 Z"
         id="path1146-3-3" />
    </marker>
    <marker
       style="overflow:visible"
       id="Arrow1Mend-5-3"
       refX="0"
       refY="0"
       orient="auto">
      <path
         transform="matrix(-0.4,0,0,-0.4,-4,0)"
         style="fill:#000000;fill-opacity:1;fill-rule:evenodd;stroke:#000000;stroke-width:1.00000003pt;stroke-opacity:1"
         d="M 0,0 5,-5 -12.5,0 5,5 Z"
         id="path1146-3-9" />
    </marker>
    <marker
       orient="auto"
       refY="0"
       refX="0"
       id="Arrow1Mend-5-0-4"
       style="overflow:visible">
      <path
         id="path1146-3-3-8"
         d="M 0,0 5,-5 -12.5,0 5,5 Z"
         style="fill:#ffffff;fill-opacity:1;fill-rule:evenodd;stroke:#ffffff;stroke-width:1.00000003pt;stroke-opacity:1"
         transform="matrix(-0.4,0,0,-0.4,-4,0)" />
    </marker>
    <marker
       orient="auto"
       refY="0"
       refX="0"
       id="Arrow1Mend-5-3-8"
       style="overflow:visible">
      <path
         id="path1146-3-9-5"
         d="M 0,0 5,-5 -12.5,0 5,5 Z"
         style="fill:#ffffff;fill-opacity:1;fill-rule:evenodd;stroke:#ffffff;stroke-width:1.00000003pt;stroke-opacity:1"
         transform="matrix(-0.4,0,0,-0.4,-4,0)" />
    </marker>
    <marker
       style="overflow:visible"
       id="Arrow1Mend"
       refX="0"
       refY="0"
       orient="auto">
      <path
         transform="matrix(-0.4,0,0,-0.4,-4,0)"
         style="fill:#000000;fill-opacity:1;fill-rule:evenodd;stroke:#000000;stroke-width:1.00000003pt;stroke-opacity:1"
         d="M 0,0 5,-5 -12.5,0 5,5 Z"
         id="path1146" />
    </marker>
    <marker
       orient="auto"
       refY="0"
       refX="0"
       id="Arrow1Mend-5"
       style="overflow:visible">
      <path
         id="path1146-3"
         d="M 0,0 5,-5 -12.5,0 5,5 Z"
         style="fill:#ffffff;fill-opacity:1;fill-rule:evenodd;stroke:#ffffff;stroke-width:1.00000003pt;stroke-opacity:1"
         transform="matrix(-0.4,0,0,-0.4,-4,0)" />
    </marker>
    <marker
       style="overflow:visible"
       id="Arrow1Mstart"
       refX="0"
       refY="0"
       orient="auto">
      <path
         transform="matrix(0.4,0,0,0.4,4,0)"
         style="fill:#000000;fill-opacity:1;fill-rule:evenodd;stroke:#000000;stroke-width:1.00000003pt;stroke-opacity:1"
         d="M 0,0 5,-5 -12.5,0 5,5 Z"
         id="path1143" />
    </marker>
    <marker
       orient="auto"
       refY="0"
       refX="0"
       id="Arrow1Mstart-1"
       style="overflow:visible">
      <path
         id="path1143-7"
         d="M 0,0 5,-5 -12.5,0 5,5 Z"
         style="fill:#ffffff;fill-opacity:1;fill-rule:evenodd;stroke:#ffffff;stroke-width:1.00000003pt;stroke-opacity:1"
         transform="matrix(0.4,0,0,0.4,4,0)" />
    </marker>
    <marker
       style="overflow:visible"
       id="Arrow1Lend"
       refX="0"
       refY="0"
       orient="auto">
      <path
         transform="matrix(-0.8,0,0,-0.8,-10,0)"
         style="fill:#000000;fill-opacity:1;fill-rule:evenodd;stroke:#000000;stroke-width:1.00000003pt;stroke-opacity:1"
         d="M 0,0 5,-5 -12.5,0 5,5 Z"
         id="path1140" />
    </marker>
    <marker
       style="overflow:visible"
       id="Arrow1Lstart"
       refX="0"
       refY="0"
       orient="auto">
      <path
         transform="matrix(0.8,0,0,0.8,10,0)"
         style="fill:#000000;fill-opacity:1;fill-rule:evenodd;stroke:#000000;stroke-width:1.00000003pt;stroke-opacity:1"
         d="M 0,0 5,-5 -12.5,0 5,5 Z"
         id="path1137" />
    </marker>
    <marker
       orient="auto"
       refY="0"
       refX="0"
       id="Arrow1Lend-5"
       style="overflow:visible">
      <path
         id="path1140-4"
         d="M 0,0 5,-5 -12.5,0 5,5 Z"
         style="fill:#ffffff;fill-opacity:1;fill-rule:evenodd;stroke:#ffffff;stroke-width:1.00000003pt;stroke-opacity:1"
         transform="matrix(-0.8,0,0,-0.8,-10,0)" />
    </marker>
    <marker
       orient="auto"
       refY="0"
       refX="0"
       id="Arrow1Lstart-93"
       style="overflow:visible">
      <path
         id="path1137-7"
         d="M 0,0 5,-5 -12.5,0 5,5 Z"
         style="fill:#ffffff;fill-opacity:1;fill-rule:evenodd;stroke:#ffffff;stroke-width:1.00000003pt;stroke-opacity:1"
         transform="matrix(0.8,0,0,0.8,10,0)" />
    </marker>
    <linearGradient
       id="linearGradient4460"
       osb:paint="solid">
      <stop
         style="stop-color:#db3b3b;stop-opacity:1;"
         offset="0"
         id="stop4458" />
    </linearGradient>
  </defs>
  <metadata
     id="metadata45">
    <rdf:RDF>
      <cc:Work
         rdf:about="">
        <dc:format>image/svg+xml</dc:format>
        <dc:type
           rdf:resource="http://purl.org/dc/dcmitype/StillImage" />
        <dc:title></dc:title>
      </cc:Work>
    </rdf:RDF>
  </metadata>
  <g
     id="g8556"
     transform="translate(49.836509,-375.23204)">
    <g
       id="g5305">
      <g
         id="g4948"
         transform="translate(-1113.893,406.95596)">
        <rect
           style="fill:#db3b3b;fill-opacity:1;stroke:#000000;stroke-width:0.49999899;stroke-linecap:round;stroke-miterlimit:4;stroke-dasharray:none;stroke-opacity:1;paint-order:fill markers stroke"
           id="rect833-4-4-4-3-7-5"
           width="52.916668"
           height="52.916668"
           x="1064.0566"
           y="-31.749989" />
        <text
           xml:space="preserve"
           style="font-size:6.3499999px;line-height:1.25;font-family:voestalpine;-inkscape-font-specification:voestalpine;letter-spacing:0px;word-spacing:0px;fill:#ffffff;fill-opacity:1;stroke-width:0.26458299"
           x="1090.3129"
           y="19.704666"
           id="text983-1-5-6-98-2-4"><tspan
             id="tspan2140-0"
             x="1090.3129"
             y="19.704666"
             style="font-size:6.3499999px;text-align:center;text-anchor:middle;fill:#ffffff;fill-opacity:1;stroke-width:0.26458299">Prawa autorskie</tspan></text>
        <g
           style="fill:#ffffff;fill-opacity:1"
           id="g2264"
           transform="matrix(1.445759,0,0,1.445759,1076.0573,-26.83631)">
          <g
             id="g2251"
             style="fill:#ffffff;fill-opacity:1">
            <path
               id="path2247"
               d="m 9.9,6 v 0 c 1,0 2,0.4 2.7,1.2 L 14,5.8 C 12.9,4.6 11.4,4 9.9,4 v 0 c -1.6,0 -3,0.6 -4.2,1.8 -2.3,2.3 -2.3,6.1 0,8.5 1.1,1.1 2.6,1.7 4.2,1.7 1.6,0 3,-0.6 4.2,-1.8 l -1.4,-1.4 c -1.5,1.5 -4,1.5 -5.4,0 C 5.8,11.2 5.8,8.7 7.3,7.1 7.9,6.4 8.8,6 9.9,6 Z"
               style="fill:#ffffff;fill-opacity:1" />
            <path
               id="path2249"
               d="M 10,0 C 4.5,0 0,4.5 0,10 0,15.5 4.5,20 10,20 15.5,20 20,15.5 20,10 20,4.5 15.5,0 10,0 Z m 0,18 C 5.6,18 2,14.4 2,10 2,5.6 5.6,2 10,2 c 4.4,0 8,3.6 8,8 0,4.4 -3.6,8 -8,8 z"
               style="fill:#ffffff;fill-opacity:1" />
          </g>
        </g>
      </g>
    </g>
  </g>
</svg>
